src/components/icons/customers/logos/ideo.svg

<svg height="72" viewBox="0 0 160 72" width="160" xmlns="http://www.w3.org/2000/svg"><path d="m44 0v34.51h34.039v-34.51zm4.683 4.855h24.567v4.362h-10.08v15.707h10.2v4.73h-24.564v-4.73h9.7v-15.707h-9.822v-4.361zm33.277-4.84v34.495h34.024v-34.495zm19.642 4.593c2.153 0 9.958 4.725 9.958 13.21 0 8.459-8.673 12.084-9.958 12.084h-15.232v-25.171s10.816-.123 15.233-.123zm-1.232 4.532c-2.832 0-9.775.077-9.775.077v16.138h9.776c.824 0 6.37-2.328 6.37-7.754 0-5.44-4.99-8.46-6.37-8.46zm-56.37 28.364v34.495h34.023v-34.494h-34.023zm4.607 4.793h24.81v4.362h-20.522v5.719h15.613v4.732h-15.614v5.487h20.523v4.609h-24.81zm33.354-4.792v34.495h34.039v-34.495zm17.012 3.42c7.529 0 13.636 6.193 13.636 13.826 0 7.634-6.107 13.826-13.636 13.826-7.53 0-13.622-6.192-13.622-13.826 0-7.633 6.093-13.825 13.622-13.825zm0 4.779c-4.926 0-8.909 4.053-8.909 9.048 0 4.994 3.983 9.047 8.909 9.047s8.924-4.053 8.924-9.048c0-4.994-3.998-9.047-8.925-9.047z" fill="#7b7194" fill-rule="evenodd"/></svg>

<svg height="72" viewBox="0 0 160 72" width="160" xmlns="http://www.w3.org/2000/svg"><path d="M44 0v34.51h34.039V0zm4.683 4.855H73.25v4.362H63.17v15.707h10.2v4.73H48.806v-4.73h9.7V9.217h-9.822V4.856zM81.96.015V34.51h34.024V.015zm19.642 4.593c2.153 0 9.958 4.725 9.958 13.21 0 8.459-8.673 12.084-9.958 12.084H86.37V4.731s10.816-.123 15.233-.123zM100.37 9.14c-2.832 0-9.775.077-9.775.077v16.138h9.776c.824 0 6.37-2.328 6.37-7.754 0-5.44-4.99-8.46-6.37-8.46zM44 37.504v34.495h34.023V37.505H44zm4.607 4.793h24.81v4.362H52.895v5.719h15.613v4.732H52.894v5.487h20.523v4.609h-24.81zm33.354-4.792V72H116V37.505zm17.012 3.42c7.529 0 13.636 6.193 13.636 13.826 0 7.634-6.107 13.826-13.636 13.826-7.53 0-13.622-6.192-13.622-13.826 0-7.633 6.093-13.825 13.622-13.825zm0 4.779c-4.926 0-8.909 4.053-8.909 9.048 0 4.994 3.983 9.047 8.909 9.047s8.924-4.053 8.924-9.048c0-4.994-3.998-9.047-8.925-9.047z" fill="#7b7194" fill-rule="evenodd"/></svg>
